src/images/backers-bg-bottom.svg

<svg preserveAspectRatio="xMidYMid slice" viewBox="0 0 1624 161" xmlns="http://www.w3.org/2000/svg" xmlns:xlink="http://www.w3.org/1999/xlink"><defs><path id="a" d="m5842.00021 517.000293s789.99984-197.999538 1626.99958-144.999777v-370.999884s-760.00017 308.000031-1625.99938 203.000103c2.00041 0-1.0002 312.999558-1.0002 312.999558z"/><filter id="b" height="112.3%" width="103.9%" x="-1.9%" y="-6%"><feOffset dx=".5" dy=".9" in="SourceAlpha" result="shadowOffsetOuter1"/><feGaussianBlur in="shadowOffsetOuter1" result="shadowBlurOuter1" stdDeviation="10.5"/><feColorMatrix in="shadowBlurOuter1" type="matrix" values="0 0 0 0 0   0 0 0 0 0   0 0 0 0 0  0 0 0 0.04 0"/></filter><path id="c" d="m5842.00021 527.000139s789.99984-197.999473 1626.99958-144.999848v-361.000106s-760.00017 290.000205-1625.99938 185.000122c2.00041 0-1.0002 320.999832-1.0002 320.999832z"/><filter id="d" height="112.6%" width="103.9%" x="-1.9%" y="-6.1%"><feOffset dx=".5" dy=".9" in="SourceAlpha" result="shadowOffsetOuter1"/><feGaussianBlur in="shadowOffsetOuter1" result="shadowBlurOuter1" stdDeviation="10.5"/><feColorMatrix in="shadowBlurOuter1" type="matrix" values="0 0 0 0 0   0 0 0 0 0   0 0 0 0 0  0 0 0 0.04 0"/></filter></defs><g fill="none" fill-rule="evenodd" transform="translate(-5844 -368)"><g><use fill="#000" filter="url(#b)" xlink:href="#a"/><use fill="#92a1b4" fill-rule="evenodd" xlink:href="#a"/></g><g><use fill="#000" filter="url(#d)" xlink:href="#c"/><use fill="#7490b1" fill-rule="evenodd" xlink:href="#c"/></g></g></svg>

<?xml version="1.0" encoding="UTF-8"?>
<svg viewBox="0 0 1624 161" version="1.1" xmlns="http://www.w3.org/2000/svg" xmlns:xlink="http://www.w3.org/1999/xlink" preserveAspectRatio="xMidYMid slice">
    <!-- Generator: Sketch 51.2 (57519) - http://www.bohemiancoding.com/sketch -->
    <title>bottom</title>
    <desc>Created with Sketch.</desc>
    <defs>
        <path d="M5842.00021,517.000293 C5842.00021,517.000293 6632.00005,319.000755 7468.99979,372.000516 L7468.99979,1.000632 C7468.99979,1.000632 6708.99962,309.000663 5843.00041,204.000735 C5845.00082,204.000735 5842.00021,517.000293 5842.00021,517.000293 Z" id="path-1"></path>
        <filter x="-1.9%" y="-6.0%" width="103.9%" height="112.3%" filterUnits="objectBoundingBox" id="filter-2">
            <feOffset dx="0.5" dy="0.9" in="SourceAlpha" result="shadowOffsetOuter1"></feOffset>
            <feGaussianBlur stdDeviation="10.5" in="shadowOffsetOuter1" result="shadowBlurOuter1"></feGaussianBlur>
            <feColorMatrix values="0 0 0 0 0   0 0 0 0 0   0 0 0 0 0  0 0 0 0.04 0" type="matrix" in="shadowBlurOuter1"></feColorMatrix>
        </filter>
        <path d="M5842.00021,527.000139 C5842.00021,527.000139 6632.00005,329.000666 7468.99979,382.000291 L7468.99979,21.000185 C7468.99979,21.000185 6708.99962,311.00039 5843.00041,206.000307 C5845.00082,206.000307 5842.00021,527.000139 5842.00021,527.000139 Z" id="path-3"></path>
        <filter x="-1.9%" y="-6.1%" width="103.9%" height="112.6%" filterUnits="objectBoundingBox" id="filter-4">
            <feOffset dx="0.5" dy="0.9" in="SourceAlpha" result="shadowOffsetOuter1"></feOffset>
            <feGaussianBlur stdDeviation="10.5" in="shadowOffsetOuter1" result="shadowBlurOuter1"></feGaussianBlur>
            <feColorMatrix values="0 0 0 0 0   0 0 0 0 0   0 0 0 0 0  0 0 0 0.04 0" type="matrix" in="shadowBlurOuter1"></feColorMatrix>
        </filter>
    </defs>
    <g id="Page-2" stroke="none" stroke-width="1" fill="none" fill-rule="evenodd">
        <g id="Blue-swoosh" transform="translate(-5844.000000, -368.000000)">
            <g id="Shape-3">
                <use fill="black" fill-opacity="1" filter="url(#filter-2)" xlink:href="#path-1"></use>
                <use fill="#92A1B4" fill-rule="evenodd" xlink:href="#path-1"></use>
            </g>
            <g id="Shape-3-copy">
                <use fill="black" fill-opacity="1" filter="url(#filter-4)" xlink:href="#path-3"></use>
                <use fill="#7490B1" fill-rule="evenodd" xlink:href="#path-3"></use>
            </g>
        </g>
    </g>
</svg>
